icons/midnadark/actions/24/run-clean.svg

<?xml version="1.0" encoding="UTF-8" standalone="no"?>
<!-- Created with Inkscape (http://www.inkscape.org/) -->

<svg
   xmlns:sketch="http://www.bohemiancoding.com/sketch/ns"
   xmlns:dc="http://purl.org/dc/elements/1.1/"
   xmlns:cc="http://creativecommons.org/ns#"
   xmlns:rdf="http://www.w3.org/1999/02/22-rdf-syntax-ns#"
   xmlns:svg="http://www.w3.org/2000/svg"
   xmlns="http://www.w3.org/2000/svg"
   xmlns:sodipodi="http://sodipodi.sourceforge.net/DTD/sodipodi-0.dtd"
   xmlns:inkscape="http://www.inkscape.org/namespaces/inkscape"
   width="22"
   height="22"
   id="svg3869"
   version="1.1"
   inkscape:version="0.91 r13725"
   sodipodi:docname="run-clean.svg">
  <defs
     id="defs3871" />
  <sodipodi:namedview
     id="base"
     pagecolor="#ffffff"
     bordercolor="#666666"
     borderopacity="1.0"
     inkscape:pageopacity="0.0"
     inkscape:pageshadow="2"
     inkscape:zoom="16"
     inkscape:cx="-14.03125"
     inkscape:cy="10.903343"
     inkscape:document-units="px"
     inkscape:current-layer="layer1"
     showgrid="true"
     fit-margin-top="0"
     fit-margin-left="0"
     fit-margin-right="0"
     fit-margin-bottom="0"
     inkscape:window-width="1366"
     inkscape:window-height="633"
     inkscape:window-x="0"
     inkscape:window-y="33"
     inkscape:window-maximized="1"
     inkscape:showpageshadow="false">
    <inkscape:grid
       type="xygrid"
       id="grid4132" />
    <sodipodi:guide
       position="4,18"
       orientation="18,0"
       id="guide4138" />
    <sodipodi:guide
       position="5,3"
       orientation="0,18"
       id="guide4140" />
    <sodipodi:guide
       position="20,2.0000174"
       orientation="-18,0"
       id="guide4142" />
    <sodipodi:guide
       position="2,21"
       orientation="0,-18"
       id="guide4144" />
    <sodipodi:guide
       position="3,19.000017"
       orientation="16,0"
       id="guide4146" />
    <sodipodi:guide
       position="2,4"
       orientation="0,16"
       id="guide4148" />
    <sodipodi:guide
       position="21,20"
       orientation="-16,0"
       id="guide4150" />
    <sodipodi:guide
       position="2,20"
       orientation="0,-16"
       id="guide4152" />
  </sodipodi:namedview>
  <metadata
     id="metadata3874">
    <rdf:RDF>
      <cc:Work
         rdf:about="">
        <dc:format>image/svg+xml</dc:format>
        <dc:type
           rdf:resource="http://purl.org/dc/dcmitype/StillImage" />
        <dc:title />
      </cc:Work>
    </rdf:RDF>
  </metadata>
  <g
     inkscape:label="Capa 1"
     inkscape:groupmode="layer"
     id="layer1"
     transform="translate(-326,-534.3622)">
    <g
       id="g4150"
       transform="translate(-1,1)"
       style="fill:#ffffff;fill-opacity:1">
      <g
         transform="translate(-1.4005019e-7,-1.9776647e-6)"
         inkscape:label="Capa 1"
         id="layer1-6"
         style="fill:#ffffff;fill-opacity:1">
        <g
           transform="matrix(0.66666669,0,0,0.66666669,70.95237,189.83022)"
           id="layer1-3"
           inkscape:label="Capa 1"
           style="fill:#ffffff;fill-opacity:1">
          <g
             inkscape:label="Capa 1"
             id="layer1-8"
             transform="matrix(1.5359999,0,0,1.5359999,383.7381,-1067.9379)"
             style="fill:#ffffff;fill-opacity:1">
            <g
               id="cog2"
               sketch:type="MSLayerGroup"
               transform="matrix(0.12485916,0,0,0.12485916,3.0932607,1033.6287)"
               style="fill:#ffffff;fill-opacity:1">
              <path
                 style="fill:#ffffff;fill-opacity:1"
                 d="M 9.84375 3 C 9.6423772 3 9.5173352 3.096547 9.46875 3.2910156 C 9.3784838 3.6381441 9.2771223 4.284045 9.1660156 5.2285156 C 8.8395998 5.3328459 8.5243253 5.4653081 8.21875 5.625 L 6.78125 4.5097656 C 6.6909838 4.4403399 6.6000318 4.40625 6.5097656 4.40625 C 6.356978 4.40625 6.0288867 4.6537988 5.5253906 5.1503906 C 5.0218946 5.6469825 4.6806602 6.0215263 4.5 6.2714844 C 4.4374785 6.3617506 4.40625 6.4403399 4.40625 6.5097656 C 4.40625 6.5931276 4.4403399 6.6765315 4.5097656 6.7597656 C 4.9750328 7.322331 5.3471694 7.8012963 5.625 8.1972656 C 5.4513719 8.5166494 5.3159204 8.8368663 5.21875 9.15625 L 3.28125 9.4472656 C 3.2049201 9.4612019 3.1396016 9.5075266 3.0839844 9.5839844 C 3.0283671 9.6603143 3 9.7390315 3 9.8222656 L 3 12.134766 C 3 12.22516 3.0283671 12.307982 3.0839844 12.380859 C 3.1396016 12.453865 3.2124682 12.495957 3.3027344 12.509766 L 5.2089844 12.791016 C 5.3061548 13.13124 5.4472012 13.475137 5.6347656 13.822266 C 5.5098505 13.995894 5.3222237 14.240581 5.0722656 14.556641 C 4.8223076 14.8727 4.6450902 15.104117 4.5410156 15.25 C 4.4853984 15.326586 4.4589844 15.406872 4.4589844 15.490234 C 4.4589844 15.580501 4.4826648 15.65909 4.53125 15.728516 C 4.8020485 16.103644 5.3749551 16.686961 6.25 17.478516 C 6.3264578 17.554973 6.4125952 17.59375 6.5097656 17.59375 C 6.6139681 17.59375 6.7020587 17.562394 6.7714844 17.5 L 8.2402344 16.384766 C 8.525097 16.530649 8.8375102 16.66025 9.1777344 16.771484 L 9.46875 18.6875 C 9.4757821 18.777766 9.5150128 18.85304 9.5878906 18.912109 C 9.6607684 18.971307 9.7465796 19 9.84375 19 L 12.15625 19 C 12.357879 19 12.482537 18.903453 12.53125 18.708984 C 12.621388 18.361728 12.722878 17.715955 12.833984 16.771484 C 13.1604 16.667282 13.475803 16.534692 13.78125 16.375 L 15.21875 17.5 C 15.31592 17.562394 15.407 17.59375 15.490234 17.59375 C 15.642894 17.59375 15.968834 17.346655 16.46875 16.853516 C 16.968922 16.360504 17.312691 15.985506 17.5 15.728516 C 17.562521 15.65909 17.59375 15.580501 17.59375 15.490234 C 17.59375 15.399968 17.559788 15.311622 17.490234 15.228516 C 16.990318 14.617365 16.618182 14.138272 16.375 13.791016 C 16.513851 13.534026 16.649303 13.218751 16.78125 12.84375 L 18.708984 12.552734 C 18.792218 12.538798 18.860526 12.492473 18.916016 12.416016 C 18.971505 12.339558 19 12.260968 19 12.177734 L 19 9.8652344 C 19.000128 9.7749682 18.971761 9.6921463 18.916016 9.6191406 C 18.860271 9.546135 18.787532 9.5040428 18.697266 9.4902344 L 16.791016 9.1972656 C 16.686813 8.8639456 16.545767 8.5249907 16.365234 8.1777344 C 16.490149 8.0041062 16.677776 7.7594189 16.927734 7.4433594 C 17.177692 7.1272999 17.354782 6.8958834 17.458984 6.75 C 17.514602 6.6735422 17.541016 6.5931276 17.541016 6.5097656 C 17.541016 6.4125952 17.517463 6.3368673 17.46875 6.28125 C 17.218792 5.9269616 16.645885 5.3362254 15.75 4.5097656 C 15.666894 4.4403399 15.580373 4.40625 15.490234 4.40625 C 15.386032 4.40625 15.302756 4.4376064 15.240234 4.5 L 13.759766 5.6152344 C 13.474903 5.4693509 13.16249 5.3396223 12.822266 5.2285156 L 12.53125 3.3125 C 12.524346 3.2222338 12.484987 3.14696 12.412109 3.0878906 C 12.339104 3.0288213 12.253676 3 12.15625 3 L 9.84375 3 z M 9.9003906 9.1992188 L 13.900391 9.1992188 L 13.900391 13.199219 L 9.9003906 13.199219 L 7.9003906 11.199219 L 9.9003906 9.1992188 z "
                 transform="matrix(7.8213127,0,0,7.8213127,-23.035938,-23.034939)"
                 id="path4463" />
            </g>
          </g>
        </g>
      </g>
      <g
         style="fill:#ffffff;fill-opacity:1"
         transform="translate(-5.1,-5.8)"
         inkscape:label="Capa 1"
         id="layer1-4">
        <g
           style="fill:#ffffff;fill-opacity:1"
           transform="translate(-94.71429,7.57146)"
           id="layer1-1"
           inkscape:label="Capa 1" />
      </g>
    </g>
  </g>
</svg>

<svg xmlns="http://www.w3.org/2000/svg" viewBox="0 0 22 22"><path d="m9.844 3c-.201 0-.326.097-.375.291-.09.347-.192.993-.303 1.937-.326.104-.642.237-.947.396l-1.438-1.115c-.09-.069-.181-.104-.271-.104-.153 0-.481.248-.984.744-.503.497-.845.871-1.025 1.121-.063.09-.094.169-.094.238 0 .083.034.167.104.25.465.563.837 1.042 1.115 1.438-.174.319-.309.64-.406.959l-1.938.291c-.076.014-.142.06-.197.137-.056.076-.084.155-.084.238v2.313c0 .09.028.173.084.246.056.073.128.115.219.129l1.906.281c.097.34.238.684.426 1.031-.125.174-.313.418-.563.734-.25.316-.427.547-.531.693-.056.077-.082.157-.082.24 0 .09.024.169.072.238.271.375.844.958 1.719 1.75.076.076.163.115.26.115.104 0 .192-.031.262-.094l1.469-1.115c.285.146.597.275.938.387l.291 1.916c.007.09.046.166.119.225.073.059.159.088.256.088h2.313c.202 0 .326-.097.375-.291.09-.347.192-.993.303-1.938.326-.104.642-.237.947-.396l1.438 1.125c.097.062.188.094.271.094.153 0 .479-.247.979-.74.5-.493.844-.868 1.031-1.125.063-.069.094-.148.094-.238 0-.09-.034-.179-.104-.262-.5-.611-.872-1.09-1.115-1.438.139-.257.274-.572.406-.947l1.928-.291c.083-.014.152-.06.207-.137.055-.076.084-.155.084-.238v-2.312c0-.09-.028-.173-.084-.246-.056-.073-.128-.115-.219-.129l-1.906-.293c-.104-.333-.245-.672-.426-1.02.125-.174.313-.418.563-.734.25-.316.427-.547.531-.693.056-.076.082-.157.082-.24 0-.097-.024-.173-.072-.229-.25-.354-.823-.945-1.719-1.771-.083-.069-.17-.104-.26-.104-.104 0-.187.031-.25.094l-1.48 1.115c-.285-.146-.597-.276-.938-.387l-.291-1.916c-.007-.09-.046-.166-.119-.225-.073-.059-.158-.088-.256-.088h-2.313m.057 6.199h4v4h-4l-2-2 2-2" transform="translate(0 .008)" fill="#fff"/></svg>
